flaticon/army-badges/aeroplane-4.svg

<svg xmlns="http://www.w3.org/2000/svg" width="32" height="32" viewBox="0 0 24 24">
    <path d="M 23.828125 14.105469 L 21.988281 12.707031 L 21.988281 10.789062 C 21.988281 10.109375 21.46875 9.589844 20.789062 9.589844 C 20.109375 9.589844 19.589844 10.109375 19.589844 10.789062 L 19.589844 10.886719 L 17.992188 9.671875 L 17.992188 7.589844 C 17.992188 6.914062 17.472656 6.394531 16.792969 6.394531 C 16.117188 6.394531 15.597656 6.914062 15.597656 7.589844 L 15.597656 7.847656 L 13.996094 6.632812 L 13.996094 4.554688 C 13.996094 3.316406 13.796875 2.117188 13.359375 0.957031 C 13.160156 0.359375 12.597656 0 12 0 C 11.402344 0 10.839844 0.398438 10.640625 1 C 10.203125 2.15625 10.003906 3.355469 10.003906 4.59375 L 10.003906 6.59375 L 8.402344 7.808594 L 8.402344 7.589844 C 8.402344 6.914062 7.882812 6.394531 7.207031 6.394531 C 6.527344 6.394531 6.007812 6.914062 6.007812 7.589844 L 6.007812 9.632812 L 4.410156 10.84375 L 4.410156 10.789062 C 4.410156 10.109375 3.890625 9.589844 3.210938 9.589844 C 2.53125 9.589844 2.011719 10.109375 2.011719 10.789062 L 2.011719 12.667969 L 0.171875 14.066406 C 0.0546875 14.144531 0.0117188 14.265625 0.0117188 14.382812 L 0.0117188 16.78125 C 0.0117188 16.941406 0.09375 17.0625 0.171875 17.101562 C 0.253906 17.140625 0.332031 17.179688 0.414062 17.179688 C 0.453125 17.179688 0.492188 17.179688 0.53125 17.179688 L 10.003906 13.847656 L 10.003906 19.585938 L 7.046875 20.816406 C 6.886719 20.855469 6.804688 21.015625 6.804688 21.175781 L 6.804688 23.574219 C 6.804688 23.734375 6.886719 23.855469 7.003906 23.933594 C 7.085938 24.015625 7.246094 24.015625 7.363281 23.972656 L 12 22.015625 L 16.636719 23.933594 C 16.675781 23.972656 16.753906 23.972656 16.792969 23.972656 C 16.875 23.972656 16.953125 23.972656 17.035156 23.894531 C 17.113281 23.8125 17.195312 23.695312 17.195312 23.574219 L 17.195312 21.175781 C 17.195312 21.015625 17.113281 20.898438 16.953125 20.816406 L 13.996094 19.585938 L 13.996094 13.882812 L 23.46875 17.140625 C 23.507812 17.179688 23.546875 17.179688 23.585938 17.179688 C 23.667969 17.179688 23.746094 17.179688 23.828125 17.140625 C 23.90625 17.0625 23.988281 16.941406 23.988281 16.820312 L 23.988281 14.425781 C 23.988281 14.304688 23.90625 14.183594 23.828125 14.105469 Z M 20.390625 10.789062 C 20.390625 10.546875 20.550781 10.386719 20.789062 10.386719 C 21.03125 10.386719 21.191406 10.546875 21.191406 10.789062 L 21.191406 12.066406 L 20.390625 11.46875 Z M 16.394531 7.589844 C 16.394531 7.351562 16.554688 7.191406 16.792969 7.191406 C 17.035156 7.191406 17.195312 7.351562 17.195312 7.589844 L 17.195312 9.03125 L 16.394531 8.429688 Z M 6.804688 7.589844 C 6.804688 7.351562 6.964844 7.191406 7.207031 7.191406 C 7.445312 7.191406 7.605469 7.390625 7.605469 7.589844 L 7.605469 8.417969 L 6.804688 9.023438 Z M 2.808594 10.789062 C 2.808594 10.546875 2.96875 10.386719 3.210938 10.386719 C 3.449219 10.386719 3.609375 10.589844 3.609375 10.789062 L 3.609375 11.453125 L 2.808594 12.058594 Z M 0.8125 16.222656 L 0.8125 14.585938 L 3.875 12.265625 L 4.25 11.988281 C 4.265625 11.976562 4.28125 11.960938 4.296875 11.949219 L 10.003906 7.632812 L 10.003906 13.066406 Z M 16.394531 22.976562 L 12.160156 21.214844 C 12.121094 21.175781 12.039062 21.175781 12 21.175781 C 11.960938 21.175781 11.878906 21.214844 11.839844 21.214844 L 7.605469 22.976562 L 7.605469 21.457031 L 12 19.617188 L 16.394531 21.457031 Z M 12.160156 18.820312 C 12.039062 18.78125 11.921875 18.78125 11.839844 18.820312 L 10.800781 19.253906 L 10.800781 4.59375 C 10.800781 3.4375 11 2.316406 11.402344 1.238281 C 11.519531 0.917969 11.761719 0.800781 12 0.800781 C 12.238281 0.800781 12.480469 0.917969 12.597656 1.238281 C 13 2.316406 13.199219 3.4375 13.199219 4.554688 L 13.199219 19.253906 Z M 23.1875 16.222656 L 13.996094 13.066406 L 13.996094 7.632812 L 15.6875 8.910156 C 15.710938 8.941406 15.734375 8.964844 15.757812 8.988281 L 17.355469 10.1875 C 17.375 10.199219 17.398438 10.210938 17.421875 10.222656 L 19.742188 11.976562 C 19.746094 11.980469 19.75 11.984375 19.75 11.988281 L 20.125 12.265625 L 23.1875 14.585938 Z M 23.1875 16.222656"/>
</svg>

<svg xmlns="http://www.w3.org/2000/svg" width="32" height="32" viewBox="0 0 24 24">
    <path d="M23.828 14.105l-1.84-1.398v-1.918c0-.68-.52-1.2-1.199-1.2-.68 0-1.2.52-1.2 1.2v.098l-1.597-1.215V7.59c0-.676-.52-1.195-1.199-1.195-.676 0-1.195.52-1.195 1.195v.258l-1.602-1.215V4.555c0-1.239-.2-2.438-.637-3.598C13.16.359 12.598 0 12 0s-1.16.398-1.36 1a10.059 10.059 0 0 0-.636 3.594v2L8.402 7.809v-.22c0-.675-.52-1.194-1.195-1.194-.68 0-1.2.52-1.2 1.195v2.043l-1.597 1.21v-.054c0-.68-.52-1.2-1.2-1.2-.679 0-1.198.52-1.198 1.2v1.879l-1.84 1.398a.366.366 0 0 0-.16.317v2.398c0 .16.082.282.16.32.082.04.16.079.242.079h.117l9.473-3.332v5.738l-2.957 1.23c-.16.04-.242.2-.242.36v2.398c0 .16.082.281.199.36.082.082.242.082.36.039L12 22.016l4.637 1.918c.039.039.117.039.156.039.082 0 .16 0 .242-.078.078-.082.16-.2.16-.32v-2.4c0-.16-.082-.277-.242-.359l-2.957-1.23v-5.703l9.473 3.258c.039.039.078.039.117.039.082 0 .16 0 .242-.04.078-.078.16-.199.16-.32v-2.394c0-.121-.082-.242-.16-.32zm-3.437-3.316c0-.242.16-.402.398-.402.242 0 .402.16.402.402v1.277l-.8-.597zm-3.996-3.2c0-.237.16-.398.398-.398.242 0 .402.16.402.399V9.03l-.8-.601zm-9.59 0c0-.237.16-.398.402-.398a.4.4 0 0 1 .398.399v.828l-.8.605zm-3.996 3.2c0-.242.16-.402.402-.402.238 0 .398.203.398.402v.664l-.8.606zM.812 16.223v-1.637l3.063-2.32.375-.278c.016-.011.031-.027.047-.039l5.707-4.316v5.433zm15.583 6.754l-4.235-1.762c-.039-.04-.12-.04-.16-.04-.04 0-.121.04-.16.04l-4.235 1.762v-1.52L12 19.617l4.395 1.84zM12.16 18.82a.449.449 0 0 0-.32 0l-1.04.434V4.594c0-1.157.2-2.278.602-3.356.118-.32.36-.437.598-.437s.48.117.598.437c.402 1.078.601 2.2.601 3.317v14.699zm11.027-2.597l-9.19-3.157V7.633l1.69 1.277a.704.704 0 0 0 .07.078l1.598 1.2.067.035 2.32 1.754c.004.003.008.007.008.011l.375.278 3.063 2.32zm0 0"/>
</svg>
